symbols/web/library_add_check/materialsymbolsrounded/library_add_check_wght700grad200fill1_20px.svg

<svg xmlns="http://www.w3.org/2000/svg" height="20" width="20"><path d="m11.542 7.729-.959-.937q-.333-.354-.802-.354-.469 0-.781.312-.375.375-.365.833.011.459.365.792l1.5 1.542q.438.458 1.021.458t1.041-.458l3.25-3.25q.313-.313.313-.771t-.333-.813q-.354-.333-.834-.333-.479 0-.791.333Zm-3.834 7.583q-1.208 0-2.062-.854-.854-.854-.854-2.062v-9.25q0-1.208.854-2.063Q6.5.229 7.708.229h9.25q1.209 0 2.052.854.844.855.844 2.063v9.25q0 1.208-.844 2.062-.843.854-2.052.854Zm-4.666 4.646q-1.209 0-2.052-.843-.844-.844-.844-2.053V6.354q0-.583.427-1.021.427-.437 1.01-.437.605 0 1.032.437.427.438.427 1.021v10.708H13.75q.583 0 1.021.428.437.427.437 1.01 0 .604-.437 1.031-.438.427-1.021.427Z"/></svg>

<svg xmlns="http://www.w3.org/2000/svg" height="20" width="20"><path d="M11.542 7.729 10.583 6.792Q10.25 6.438 9.781 6.438Q9.312 6.438 9 6.75Q8.625 7.125 8.635 7.583Q8.646 8.042 9 8.375L10.5 9.917Q10.938 10.375 11.521 10.375Q12.104 10.375 12.562 9.917L15.812 6.667Q16.125 6.354 16.125 5.896Q16.125 5.438 15.792 5.083Q15.438 4.75 14.958 4.75Q14.479 4.75 14.167 5.083ZM7.708 15.312Q6.5 15.312 5.646 14.458Q4.792 13.604 4.792 12.396V3.146Q4.792 1.938 5.646 1.083Q6.5 0.229 7.708 0.229H16.958Q18.167 0.229 19.01 1.083Q19.854 1.938 19.854 3.146V12.396Q19.854 13.604 19.01 14.458Q18.167 15.312 16.958 15.312ZM3.042 19.958Q1.833 19.958 0.99 19.115Q0.146 18.271 0.146 17.062V6.354Q0.146 5.771 0.573 5.333Q1 4.896 1.583 4.896Q2.188 4.896 2.615 5.333Q3.042 5.771 3.042 6.354V17.062Q3.042 17.062 3.042 17.062Q3.042 17.062 3.042 17.062H13.75Q14.333 17.062 14.771 17.49Q15.208 17.917 15.208 18.5Q15.208 19.104 14.771 19.531Q14.333 19.958 13.75 19.958Z"/></svg>
